!!!COM: Palestrina, Giovanni Perluigi da
!!!OPR: Missa In te Domine speravi (1599)
!!!OMD: Credo
!!!OTL: Crucifixus
**kern	**kern	**kern	**kern
*Itenor	*Icalto	*Icant	*Icant
!Tenor	!Altus	!Cantus 2	!Cantus 1
*clefGv2	*clefG2	*clefG2	*clefG2
*k[]	*k[]	*k[]	*k[]
*C:ion	*C:ion	*C:ion	*C:ion
*M4/2	*M4/2	*M4/2	*M4/2
=88	=88	=88	=88
0r	0r	1g	0r
.	.	1g	.
=89	=89	=89	=89
0r	0r	2a	0r
.	.	2g	.
.	.	2cc	.
.	.	2dd	.
=90	=90	=90	=90
0r	1c	2ee	0r
.	.	1ee	.
.	1c	.	.
.	.	4dd	.
.	.	4cc	.
=91	=91	=91	=91
0r	2d	2b	0r
.	2c	1cc	.
.	2f	.	.
.	2g	2b	.
=92	=92	=92	=92
1r	2a	2cc	0r
.	1cc	1ee	.
1G	.	.	.
.	4b	4dd	.
.	4a	4cc	.
=93	=93	=93	=93
1G	4b	2dd	0r
.	4a	.	.
.	4g	2b	.
.	4f	.	.
2A	4e	2cc	.
.	4f	.	.
2G	[2g	2b	.
=94	=94	=94	=94
2c	2g]	1a	0r
2d	2f#	.	.
2e	2g	1g	.
[2e	[2c	.	.
=95	=95	=95	=95
2e]	2c]	0r	1g
4d	4B	.	.
4c	4A	.	.
2B	2G	.	1g
[2c	4c	.	.
.	4d	.	.
=96	=96	=96	=96
2c]	4e	1r	2a
.	4f	.	.
2B	1g	.	2g
2A	.	2.a	2cc
2d	2f	.	2dd
.	.	4b	.
=97	=97	=97	=97
4c	1g	2cc	2ee
4d	.	.	.
4e	.	2cc	1ee
4f	.	.	.
1g	2r	4b	.
.	.	4a	.
.	2g	4b	4dd
.	.	4cc	4cc
=98	=98	=98	=98
0r	2g	2dd	2b
.	2e	2ee	1cc
.	2f	1dd	.
.	2g	.	2b
=99	=99	=99	=99
2r	4c	2ee	0cc
.	4d	.	.
2c	4e	2ee	.
.	4f	.	.
2c	4g	2ee	.
.	4e	.	.
2A	2a	2cc	.
=100	=100	=100	=100
2B	2g	2dd	1r
2c	2g	2ee	.
4F	2.cc	4a	2r
4G	.	4b	.
4A	.	4cc	2ee
4B	4b	4dd	.
=101	=101	=101	=101
4c	2a	4ee	2ee
4d	.	4ff	.
2e	2g	4gg	2cc
.	.	4ee	.
2d	2a	2ff	2dd
2c	[2cc	[2ee	2ee
=102	=102	=102	=102
1f	4cc]	2ee]	1a
.	4b	.	.
.	1a	2dd	.
1e	.	[1ee	1b
.	2g#	.	.
=103	=103	=103	=103
1r	1a	1ee]	1cc#
[1d	2r	1ff#	[1dd
.	[2a	.	.
=104	=104	=104	=104
2d]	2a]	2ff#	2dd]
2G	2b	1gg	2dd
2c	2cc	.	2ee
2d	2a	2ff	4dd
.	.	.	4cc
=105	=105	=105	=105
2G	4g	4ee	2b
.	4f	4dd	.
2B-	4e	1dd	2g
.	4d	.	.
1A	2e	.	2a
.	2e	2cc#	2a
=106	=106	=106	=106
1d	4f#	1dd	1a
.	4g	.	.
.	4a	.	.
.	4f#	.	.
2r	1g	2r	2r
2G	.	2b	2dd
=107	=107	=107	=107
2G	0r	2b	2dd
2G	.	2b	2dd
4c	.	1cc	1ee
4d	.	.	.
4e	.	.	.
4f	.	.	.
=108	=108	=108	=108
2g	0r	2b	2dd
2c	.	1ee	1gg
2e	.	.	.
2f	.	4dd	4ff
.	.	4cc	4ee
=109	=109	=109	=109
2g	0r	2b	2dd
2a	.	2a	2cc
1g	.	2b	2dd
.	.	[2cc	2ee
=110	=110	=110	=110
1r	1g	2cc]	1dd
.	.	4b	.
.	.	4a	.
2r	2g	4b	2r
.	.	4g	.
2c	2g	[2gg	[2ee
=111	=111	=111	=111
2c	1a	2gg]	2ee]
2d	.	2ff#	4dd
.	.	.	4cc
2e	2g	2gg	2b
[2c	[2cc	[2ee	2cc
=112	=112	=112	=112
2c]	2cc]	2ee]	1g
1g	4b	4dd	.
.	4a	4cc	.
.	2g	2b	1r
4f	2a	2cc	.
4e	.	.	.
=113	=113	=113	=113
2d	2b	2dd	0r
2c	2.cc	2.ee	.
2e	.	.	.
.	4b	4dd	.
[2f	4a	4cc	.
.	4g	4b	.
=114	=114	=114	=114
4f]	4a	2.cc	1r
4e	4g	.	.
2c	1g	.	.
.	.	4b	.
1d	.	1a	2r
.	2f#	.	2dd
=115	=115	=115	=115
[0G	0g	2g	2.b
.	.	2dd	.
.	.	.	4cc
.	.	2.b	2dd
.	.	.	4g
.	.	4cc	4a
=116	=116	=116	=116
1G]	1r	2dd	4b
.	.	.	4cc
.	.	4g	1dd
.	.	4a	.
1r	1g	4b	.
.	.	4cc	.
.	.	[2dd	2b
=117	=117	=117	=117
0r	2.e	4dd]	1ee
.	.	4cc	.
.	.	2cc	.
.	4f	.	.
.	2g	2b	2dd
.	4c	[2ee	[2cc
.	4d	.	.
=118	=118	=118	=118
0r	4e	2ee]	2cc]
.	4f	.	.
.	1g	4dd	4b
.	.	4cc	4a
.	.	2dd	1b
.	2e	[2ee	.
=119	=119	=119	=119
1r	1a	4ee]	1cc
.	.	4dd	.
.	.	1cc	.
2r	1g	.	1dd
2G	.	2b	.
=120	=120	=120	=120
4A	2r	0cc	1cc
4B	.	.	.
4c	2e	.	.
4d	.	.	.
2e	2g	.	1r
2f	2a	.	.
=121	=121	=121	=121
2g	2b	0r	2r
2e	2.cc	.	2g
1f	.	.	4a
.	4b	.	4b
.	4a	.	4cc
.	4b	.	4dd
=122	=122	=122	=122
2e	2cc	0r	2ee
2d	4b	.	2ff
.	4a	.	.
2e	2g	.	2gg
2c	[2cc	.	2ee
=123	=123	=123	=123
1d	2cc]	1r	1ff
.	2b	.	.
1c	1cc	2r	2.ee
.	.	2g	.
.	.	.	4dd
=124	=124	=124	=124
2.A	0r	4a	2.cc
.	.	4b	.
.	.	4cc	.
4B	.	4dd	4b
2c	.	2ee	1a
2d	.	2ff	.
=125	=125	=125	=125
1e	2r	2gg	1g
.	2c	2ee	.
1r	4d	1ff	1r
.	4e	.	.
.	4f	.	.
.	4g	.	.
=126	=126	=126	=126
0r	2a	2ee	2r
.	2b	2dd	2g
.	[1cc	4cc	4a
.	.	4dd	4b
.	.	4ee	4cc
.	.	4ff	4dd
=127	=127	=127	=127
0r	2cc]	2gg	2ee
.	2a	4ff	2.ff
.	.	4ee	.
.	1b-	1dd	.
.	.	.	4ee
.	.	.	[2dd
=128	=128	=128	=128
1r	2.a	1ee	2dd]
.	.	.	2cc#
.	4g	.	.
2r	2f#	1dd	2dd
2g	2g	.	2b-
=129	=129	=129	=129
2g	1d	2r	1a
2f#	.	2dd	.
2g	2r	2dd	1r
2e	2g	2cc#	.
=130	=130	=130	=130
1d	2g	2dd	2r
.	2f#	2a	2dd
2r	2g	2b	2dd
2g	2e	2g	2cc#
=131	=131	=131	=131
2g	1d	2a	2dd
2f#	.	2.dd	2a
2g	1r	.	2b
.	.	4cc	.
2d	.	2b	[2dd
=132	=132	=132	=132
2f	0r	2a	4dd]
.	.	.	4cc
2g	.	1g	2b
1d	.	.	1a
.	.	2f#	.
=133	=133	=133	=133
2.e	2r	1g	2g
.	2cc	.	2ee
4f	.	.	.
1g	2cc	1r	2ee
.	2b	.	2dd
=134	=134	=134	=134
0r	2cc	1r	2ee
.	2g	.	2b
.	2b	2r	2dd
.	2cc	2cc	2ee
=135	=135	=135	=135
0r	1g	2cc	1dd
.	.	2b	.
.	1c	2cc	1ee
.	.	2g	.
=136	=136	=136	=136
2r	2.g	2b	2dd
2c	.	2cc	2ee
.	4f	.	.
2c	2e	2g	2.gg
2B	2d	2dd	.
.	.	.	4ff
=137	=137	=137	=137
2c	1g	2cc	2ee
2G	.	2b	1dd
2B	[1g	2dd	.
2c	.	[2ee	[2cc
=138	=138	=138	=138
1.G	1g_	2ee]	2cc]
.	.	4dd	4b
.	.	4cc	4a
.	1g_	2dd	2b
2A	.	2cc	2cc
=139	=139	=139	=139
2B	1g]	1b	1dd
2c	.	.	.
[1d	[1f#	[1a	[1dd
=140	=140	=140	=140
1d]	1f#]	1a]	1dd]
*-	*-	*-	*-
!!!CDT: 1525/^1526/-1594/2/2
!!!OCY: Italia
!!!AGN: Mass (Parody)
!!!AST: renaissance, vocal
!!!ASW: Motet 1532 (Lupus Hellinck)
!!!PWK: Masses, Book 9
!!!RNB: Cadence finals: G,D
!!!YOR: Le Opere Complete, v. 25, p. 131
!!!YOO: Rome, Italy: Fratelli Scalera
!!!END: 1992//
!!!EED: John Miller
!!!YEC: Copyright 2000, John Miller
!!!YEN: United States of America
!!!YEM: Rights to all derivative electronic formats reserved.
!!!YEM: Refer to licensing agreement for further details.
!!!YEM: This file must be accompanied by the licensing agreement.
!!!YEM: A copy of the licensing agreement may be found at http://www.music-cog.ohio-state.edu/HumdrumDatabases/Palestrina/license.txt
!!!EMD: converted to Humdrum by Bret Aarden
